media/costumes/button4-b.svg

<svg width="134" height="118" viewBox="13 18 134 118" xmlns="http://www.w3.org/2000/svg"><defs><linearGradient id="a" x1="13.4" y1="68.018" x2="133.636" y2="68.018" gradientUnits="userSpaceOnUse"><stop offset="0" stop-color="#6D6E71"/><stop offset="1" stop-color="#414042"/></linearGradient><linearGradient id="b" x1="73.518" y1="21.683" x2="73.518" y2="114.353" gradientUnits="userSpaceOnUse"><stop offset="0" stop-color="#58595B"/><stop offset="1"/></linearGradient></defs><path fill="url(#a)" d="M129.356 22.913a14.437 14.437 0 0 0-10.249-4.229 14.44 14.44 0 0 0-10.31 4.287L50.016 82.072 38.389 70.035a14.425 14.425 0 0 0-10.46-4.439 14.463 14.463 0 0 0-10.097 4.08c-5.767 5.571-5.927 14.793-.358 20.559l21.857 22.629a14.453 14.453 0 0 0 2.831 2.263l.138.084c.216.131.432.262.627.365a14.581 14.581 0 0 0 6.972 1.775h.001c3.895 0 7.551-1.52 10.296-4.281l69.217-69.596c5.652-5.683 5.627-14.908-.057-20.561z" transform="translate(-7.05 -10.65) scale(.59874)"/><path fill="url(#b)" d="M127.24 25.04c-4.516-4.493-11.821-4.473-16.315.046l-60.94 61.272L36.23 72.119c-4.428-4.584-11.732-4.711-16.314-.285-4.585 4.428-4.711 11.733-.284 16.317l21.856 22.627a11.551 11.551 0 0 0 2.021 1.656c.095.062.192.117.289.178.188.113.373.229.565.332 4.39 2.396 10.001 1.736 13.704-1.988l69.217-69.596c4.495-4.52 4.476-11.825-.044-16.32z" transform="translate(-7.05 -10.65) scale(.59874)"/></svg>

<svg version="1.1" width="134" height="118" viewBox="13 18 134 118" xmlns="http://www.w3.org/2000/svg" xmlns:xlink="http://www.w3.org/1999/xlink">
  <defs>
    <linearGradient id="grad_1" x1="13.3999" y1="68.0176" x2="133.6357" y2="68.0176" gradientUnits="userSpaceOnUse">
      <stop offset="0" stop-color="#6D6E71"/>
      <stop offset="1" stop-color="#414042"/>
    </linearGradient>
    <linearGradient id="grad_2" x1="73.5176" y1="21.6831" x2="73.5176" y2="114.353" gradientUnits="userSpaceOnUse">
      <stop offset="0" stop-color="#58595B"/>
      <stop offset="1" stop-color="#000000"/>
    </linearGradient>
  </defs>
  <!-- Exported by Scratch - http://scratch.mit.edu/ -->
  <g id="ID0.597694851923734" transform="matrix(0.5987369418144226, 0, 0, 0.5987369418144226, -7.05, -10.65)">
    <path id="ID0.048198970034718513" fill="url(#grad_1)" d="M 129.356 22.913 C 126.615 20.185 122.974 18.684 119.107 18.684 C 115.208 18.684 111.546 20.206 108.797 22.971 L 50.016 82.072 L 38.389 70.035 C 35.623 67.173 31.910 65.596 27.929 65.596 C 24.142 65.596 20.556 67.045 17.832 69.676 C 12.065 75.247 11.905 84.469 17.474 90.235 L 39.331 112.864 C 40.078 113.637 40.935 114.339 41.840 114.926 C 41.946 114.996 42.054 115.063 42.162 115.127 L 42.300 115.211 C 42.516 115.342 42.732 115.473 42.927 115.576 C 45.054 116.738 47.465 117.351 49.899 117.351 C 49.900 117.351 49.900 117.351 49.900 117.351 C 53.795 117.351 57.451 115.831 60.196 113.070 L 129.413 43.474 C 135.065 37.791 135.040 28.566 129.356 22.913 Z "/>
    <path id="ID0.9675217140465975" fill="url(#grad_2)" d="M 127.240 25.040 C 122.724 20.547 115.419 20.567 110.925 25.086 L 49.985 86.358 L 36.230 72.119 C 31.802 67.535 24.498 67.408 19.916 71.834 C 15.331 76.262 15.205 83.567 19.632 88.151 L 41.488 110.778 C 42.109 111.421 42.791 111.967 43.509 112.434 C 43.604 112.496 43.701 112.551 43.798 112.612 C 43.986 112.725 44.171 112.841 44.363 112.944 C 48.753 115.340 54.364 114.680 58.067 110.956 L 127.284 41.360 C 131.779 36.840 131.760 29.535 127.240 25.040 Z "/>
  </g>
</svg>
